trunk/public/assets/images/icons/yellow/move_right/log.svg

<svg width="16" height="16" xmlns="http://www.w3.org/2000/svg" viewBox="0 0 16 16" shape-rendering="geometricPrecision" fill="#ffad00"><defs><mask id="a"><rect fill="#fff" width="100%" height="100%"/><path fill="#000" d="M11.875-1.414l-2.47 2.47 2.035 2.04L9.405 5.13l2.47 2.472 4.51-4.51z"/></mask></defs><path fill="#cb1800" d="M11.875 0l-1.057 1.057 2.035 2.038-2.035 2.037 1.057 1.057 3.095-3.097"/><path d="M1.81 0v16h12.38V0H1.81zm2.555 9.815c-.462 0-.838-.376-.838-.84 0-.463.376-.838.838-.838.464 0 .842.375.842.838 0 .464-.378.84-.842.84zm0-2.658c-.462 0-.838-.376-.838-.844 0-.46.376-.837.838-.837.464 0 .842.376.842.837 0 .468-.378.844-.842.844zm0-2.662c-.462 0-.838-.376-.838-.838 0-.464.376-.84.838-.84.464 0 .842.376.842.84 0 .462-.378.838-.842.838zm8.11 5.117h-6.08V8.338h6.08v1.274zm0-2.658h-6.08V5.678h6.08v1.276zm0-2.66h-6.08V3.02h6.08v1.274z" mask="url(#a)"/></svg>

<?xml version="1.0"?><!DOCTYPE svg PUBLIC "-//W3C//DTD SVG 1.1//EN" "http://www.w3.org/Graphics/SVG/1.1/DTD/svg11.dtd"><svg width="16px" height="16px" xmlns="http://www.w3.org/2000/svg" viewBox="0 0 16 16" shape-rendering="geometricPrecision" fill="#ffad00"><defs><mask id="move_right-path"><rect fill="#fff" width="100%" height="100%"/><polygon points="11.875,-1.414 9.405,1.056 11.44,3.095 9.405,5.132 11.875,7.604 16.385,3.093 " fill="#000"/></mask></defs><polygon points="11.875,0 10.818,1.057 12.853,3.095 10.818,5.132 11.875,6.189 14.97,3.093 " fill="#cb1800"/><g mask="url(#move_right-path)"><g><g><path d="M1.81-0.001v16H14.19v-16H1.81z M4.365,9.815c-0.462,0-0.838-0.376-0.838-0.84c0-0.463,0.376-0.838,0.838-0.838 c0.464,0,0.842,0.375,0.842,0.838C5.207,9.439,4.829,9.815,4.365,9.815z M4.365,7.157c-0.462,0-0.838-0.376-0.838-0.844 c0-0.461,0.376-0.837,0.838-0.837c0.464,0,0.842,0.376,0.842,0.837C5.207,6.781,4.829,7.157,4.365,7.157z M4.365,4.495 c-0.462,0-0.838-0.376-0.838-0.838c0-0.464,0.376-0.84,0.838-0.84c0.464,0,0.842,0.376,0.842,0.84 C5.207,4.119,4.829,4.495,4.365,4.495z M12.475,9.612h-6.08V8.338h6.08V9.612z M12.475,6.954h-6.08V5.678h6.08V6.954z M12.475,4.294h-6.08V3.019h6.08V4.294z"/></g></g></g></svg>
